X: 04011
T: BOBBI'S HORNPIPE
C: Bob McQuillen 28 May 78
B: Bob's Note Book 04 #11
%R: hornpipe, reel
Z: 2020 John Chambers <jc:trillian.mit.edu>
M: C
L: 1/8
K: D
|:ABAG FAde | fefg f2d2 | gagf efga | b2a^g a4  |\
| ABAG FAde | fefg f2e2 | gagf edcd | e2d2  d4 :|
|:fefg fedf | g2f2 e4   | fefg fed2 | cBcd ecA2 |\
| fefg fedf | g2f2 edcB | ABcd efga | f2d2  d4 :|
%%begintext align
%% Surely one of the mainstays of the
%% Fox Hollow festival is the wonderful
%% Bobbi Humphrey, and so this is her tune,
%% with love and a great deal of appreciation.
%%endtext

%%sep 1 1 500

%%sep 1 1 500

